X: 57
T: No_14_Buffalo_Dance_Song_(f).krn
N: Derived from No_14_Buffalo_Dance_Song_(f).krn
%%abc-version 2.0
%%abcx-abcm2ps-target-version 5.9.1 (29 Sep 2008)
%%abc-creator hum2abc beta
%%abcx-conversion-date 2019/03/15 08:38:45
%%humdrum-veritas 824540969
%%humdrum-veritas-data 2366691822
%%linebreak <none>
%%barnumbers 0
L: 1/8
M: 2/4
K: G clef=bass
[K:clef=bass][M:2/4]z3B, ]|:  
B,3F, | 
A,G,G,2 | 
B,A, B,/A,/F, | 
A,G,G,2 | 
B,A, B,A,/F,/ | 
A,G,G,2 | 
G,/E,/E, E,3/E,/ | 
E,E,E,2 | 
G,/E,/E, E,3/E,/ ||  
[M:3/4]E,E,E,2B,2 :|]  
[M:2/4]E,E,E,2 |]  



